; generated by PrusaSlicer 2.6.1+MacOS-x64 on 2023-11-29 at 20:12:06 UTC


;
;

;
;
; 

; external perimeters extrusion width = 0.40mm
; perimeters extrusion width = 0.40mm
; infill extrusion width = 0.45mm
; solid infill extrusion width = 0.45mm
; top infill extrusion width = 0.40mm
; first layer extrusion width = 0.42mm

;TYPE:Custom
M413 S0 ; disable Power Loss Recovery
G90 ; use absolute coordinates
M83 ; extruder relative mode
M104 S120 ; set temporary nozzle temp to prevent oozing during homing and auto bed leveling
M140 S70 ; set final bed temp
G4 S10 ; allow partial nozzle warmup
G28 ; home all axis
;G29 ; run abl mesh
M420 S1 ; load mesh
G1 Z50 F240
G1 X2 Y10 F3000
M104 S230 ; set final nozzle temp
M190 S70 ; wait for bed temp to stabilize
M109 S230 ; wait for nozzle temp to stabilize
G1 Z0.28 F240
G92 E0
G1 Y140 E10 F1500 ; prime the nozzle
G1 X2.3 F5000
G92 E0
G1 Y10 E10 F1200 ; prime the nozzle
G92 E0
G21 ; set units to millimeters
G90 ; use absolute coordinates
M83 ; use relative distances for extrusion
; Filament gcode
M107 ; disable fan
;LAYER_CHANGE
;Z:0.25
;HEIGHT:0.25
;BEFORE_LAYER_CHANGE
G92 E0
;0.25


G1 E-.5 F2700 ; retract
G1 Z.31 F9000 ; lift Z
;AFTER_LAYER_CHANGE
;0.25
G1 X104.284 Y104.028 ; move to first skirt point
G1 Z.26 ; restore layer Z
G1 E.5 F2700 ;  ; unretract
;TYPE:Skirt/Brim
;WIDTH:0.42
G1 F1200
G1 X105.943 Y103.031 E.07444 ; skirt
G1 X107.5 Y102.767 E.06073 ; skirt
G1 X117.5 Y102.767 E.38458 ; skirt
G1 X119.395 Y103.163 E.07445 ; skirt
G1 X120.972 Y104.284 E.07441 ; skirt
G1 X121.969 Y105.943 E.07444 ; skirt
G1 X122.233 Y107.5 E.06073 ; skirt
G1 X122.233 Y117.5 E.38458 ; skirt
G1 X121.837 Y119.395 E.07445 ; skirt
G1 X120.716 Y120.972 E.07441 ; skirt
G1 X119.057 Y121.969 E.07444 ; skirt
G1 X117.5 Y122.233 E.06073 ; skirt
G1 X107.5 Y122.233 E.38458 ; skirt
G1 X105.605 Y121.837 E.07445 ; skirt
G1 X104.028 Y120.716 E.07441 ; skirt
G1 X103.031 Y119.057 E.07444 ; skirt
G1 X102.767 Y117.5 E.06073 ; skirt
G1 X102.767 Y107.5 E.38458 ; skirt
G1 X103.163 Y105.605 E.07445 ; skirt
G1 X104.249 Y104.077 E.07209 ; skirt
G1 X104.56 Y104.309 F9000 ; move to first skirt point
G1 F1200
G1 X104.644 Y104.197 E.00538 ; skirt
G1 X106.276 Y103.309 E.07145 ; skirt
G1 X107.5 Y103.134 E.04755 ; skirt
G1 X117.5 Y103.134 E.38458 ; skirt
G1 X119.316 Y103.529 E.07147 ; skirt
G1 X120.803 Y104.644 E.07148 ; skirt
G1 X121.691 Y106.276 E.07145 ; skirt
G1 X121.866 Y107.5 E.04755 ; skirt
G1 X121.866 Y117.5 E.38458 ; skirt
G1 X121.471 Y119.316 E.07147 ; skirt
G1 X120.356 Y120.803 E.07148 ; skirt
G1 X118.724 Y121.691 E.07145 ; skirt
G1 X117.5 Y121.866 E.04755 ; skirt
G1 X107.5 Y121.866 E.38458 ; skirt
G1 X105.684 Y121.471 E.07147 ; skirt
G1 X104.197 Y120.356 E.07148 ; skirt
G1 X103.309 Y118.724 E.07145 ; skirt
G1 X103.134 Y117.5 E.04755 ; skirt
G1 X103.134 Y107.5 E.38458 ; skirt
G1 X103.529 Y105.684 E.07147 ; skirt
G1 X104.524 Y104.357 E.06379 ; skirt
; printing object Shape-Box id:0 copy 0
G1 E-.35 F2700 ; retract
;WIPE_START
G1 F7200
G1 X104.644 Y104.197 E-.07125 ; wipe and retract
G1 X104.838 Y104.091 E-.07875 ; wipe and retract
;WIPE_END
G1 Z.56 F9000 ; lift Z
G1 X116.924 Y116.924 ; move to first perimeter point
G1 Z.26 ; restore layer Z
G1 E.5 F2700 ;  ; unretract
;TYPE:Perimeter
;WIDTH:0.419999
G1 F1200
G1 X108.076 Y116.924 E.34028 ; perimeter
G1 X108.076 Y108.076 E.34028 ; perimeter
G1 X116.924 Y108.076 E.34028 ; perimeter
G1 X116.924 Y116.864 E.33797 ; perimeter
G1 X117.29 Y117.29 F9000 ; move to first perimeter point
;TYPE:External perimeter
G1 F1200
G1 X107.71 Y117.29 E.36843 ; perimeter
G1 X107.71 Y107.71 E.36843 ; perimeter
G1 X117.29 Y107.71 E.36843 ; perimeter
G1 X117.29 Y117.23 E.36612 ; perimeter
G1 X116.904 Y117.186 F9000 ; move inwards before travel
G1 E-.35 F2700 ; retract
;WIPE_START
G1 F7200
G1 X116.869 Y117.233 E-.15 ; wipe and retract
;WIPE_END
G1 Z.56 F9000 ; lift Z
G1 X116.063 Y108.186 ; move to first infill point
G1 Z.26 ; restore layer Z
G1 E.5 F2700 ;  ; unretract
;TYPE:Solid infill
;WIDTH:0.42495
G1 F1200
G1 X116.649 Y108.772 E.0323 ; infill
G1 X116.649 Y109.298 E.0205 ; infill
G1 X115.702 Y108.351 E.0522 ; infill
G1 X115.177 Y108.351 E.02046 ; infill
G1 X116.649 Y109.823 E.08114 ; infill
G1 X116.649 Y110.348 E.02046 ; infill
G1 X114.652 Y108.351 E.11008 ; infill
G1 X114.127 Y108.351 E.02046 ; infill
G1 X116.649 Y110.873 E.13902 ; infill
G1 X116.649 Y111.398 E.02046 ; infill
G1 X113.602 Y108.351 E.16796 ; infill
G1 X113.077 Y108.351 E.02046 ; infill
G1 X116.649 Y111.923 E.1969 ; infill
G1 X116.649 Y112.448 E.02046 ; infill
G1 X112.552 Y108.351 E.22584 ; infill
G1 X112.027 Y108.351 E.02046 ; infill
G1 X116.649 Y112.973 E.25478 ; infill
G1 X116.649 Y113.498 E.02046 ; infill
G1 X111.502 Y108.351 E.28372 ; infill
G1 X110.977 Y108.351 E.02046 ; infill
G1 X116.649 Y114.023 E.31266 ; infill
G1 X116.649 Y114.549 E.0205 ; infill
G1 X110.451 Y108.351 E.34165 ; infill
G1 X109.926 Y108.351 E.02046 ; infill
G1 X116.649 Y115.074 E.37059 ; infill
G1 X116.649 Y115.599 E.02046 ; infill
G1 X109.401 Y108.351 E.39953 ; infill
G1 X108.876 Y108.351 E.02046 ; infill
G1 X116.649 Y116.124 E.42847 ; infill
G1 X116.649 Y116.649 E.02046 ; infill
G1 X108.351 Y108.351 E.45741 ; infill
G1 X108.351 Y108.876 E.02046 ; infill
G1 X116.124 Y116.649 E.42847 ; infill
G1 X115.599 Y116.649 E.02046 ; infill
G1 X108.351 Y109.401 E.39953 ; infill
G1 X108.351 Y109.926 E.02046 ; infill
G1 X115.074 Y116.649 E.37059 ; infill
G1 X114.548 Y116.649 E.0205 ; infill
G1 X108.351 Y110.452 E.3416 ; infill
G1 X108.351 Y110.977 E.02046 ; infill
G1 X114.023 Y116.649 E.31266 ; infill
G1 X113.498 Y116.649 E.02046 ; infill
G1 X108.351 Y111.502 E.28372 ; infill
G1 X108.351 Y112.027 E.02046 ; infill
G1 X112.973 Y116.649 E.25478 ; infill
G1 X112.448 Y116.649 E.02046 ; infill
G1 X108.351 Y112.552 E.22584 ; infill
G1 X108.351 Y113.077 E.02046 ; infill
G1 X111.923 Y116.649 E.1969 ; infill
G1 X111.398 Y116.649 E.02046 ; infill
G1 X108.351 Y113.602 E.16796 ; infill
G1 X108.351 Y114.127 E.02046 ; infill
G1 X110.873 Y116.649 E.13902 ; infill
G1 X110.348 Y116.649 E.02046 ; infill
G1 X108.351 Y114.652 E.11008 ; infill
G1 X108.351 Y115.177 E.02046 ; infill
G1 X109.823 Y116.649 E.08114 ; infill
G1 X109.297 Y116.649 E.0205 ; infill
G1 X108.351 Y115.703 E.05215 ; infill
G1 X108.351 Y116.228 E.02046 ; infill
G1 X108.937 Y116.814 E.0323 ; infill
; stop printing object Shape-Box id:0 copy 0
;LAYER_CHANGE
;Z:0.45
;HEIGHT:0.2
;BEFORE_LAYER_CHANGE
G92 E0
;0.45


G1 E-.35 F2700 ; retract
;WIPE_START
G1 F7200
G1 X108.639 Y116.516 E-.15 ; wipe and retract
;WIPE_END
G1 Z.56 F9000 ; lift Z
;AFTER_LAYER_CHANGE
;0.45
M104 S225 ; set temperature
; printing object Shape-Box id:0 copy 0
G1 X116.943 Y116.943 ; move to first perimeter point
G1 Z.46 ; restore layer Z
G1 E.5 F2700 ;  ; unretract
;TYPE:Perimeter
;WIDTH:0.399999
G1 F1500
G1 X108.057 Y116.943 E.26647 ; perimeter
G1 X108.057 Y108.057 E.26647 ; perimeter
G1 X116.943 Y108.057 E.26647 ; perimeter
G1 X116.943 Y116.883 E.26468 ; perimeter
G1 X117.3 Y117.3 F9000 ; move to first perimeter point
;TYPE:External perimeter
G1 F1500

G1 X116.9 Y117.3 E.012 ; perimeter
G1 X108.1 Y117.3 E.2639 ; perimeter
G1 X107.7 Y117.3 E.012 ; perimeter
G1 X107.7 Y116.9 E.012 ; perimeter
G1 X107.7 Y108.1 E.2639 ; perimeter
G1 X107.7 Y107.7 E.012 ; perimeter
G1 X108.1 Y107.7 E.012 ; perimeter
G1 X116.9 Y107.7 E.2639 ; perimeter
G1 X117.3 Y107.7 E.012 ; perimeter
G1 X117.3 Y108.1 E.012 ; perimeter
G1 X117.3 Y116.84 E.2621 ; perimeter
G1 X117.3 Y117.24 E.012 ; perimeter

G1 X116.914 Y117.196 F9000 ; move inwards before travel
G1 E-.35 F2700 ; retract
;WIPE_START
G1 F7200
G1 X116.879 Y117.243 E-.15 ; wipe and retract
;WIPE_END
G1 Z.76 F9000 ; lift Z
G1 X108.46 Y108.383 ; move to first infill point
G1 Z.46 ; restore layer Z
G1 E.5 F2700 ;  ; unretract
;TYPE:Solid infill
;WIDTH:0.548766
G1 F1500
G1 X108.416 Y108.338 E.00267 ; infill
G1 X108.355 Y108.355 E.00269 ; infill
G1 X108.338 Y108.416 E.00269 ; infill
G1 X108.383 Y108.46 E.00267 ; infill
G1 X108.444 Y108.444 E.00268 ; infill
G1 X108.217 Y109.239 F9000 ; move to first infill point
;WIDTH:0.38292
G1 F1500
G1 X108.146 Y109.22 E.0021 ; infill
G1 X108.165 Y109.292 E.00213 ; infill
G1 X108.206 Y109.281 E.00121 ; infill
;WIDTH:0.41646
G1 X108.278 Y109.187 E.00371 ; infill
;WIDTH:0.449999
G1 X108.35 Y109.094 E.00402 ; infill
G1 X109.094 Y108.35 E.03597 ; infill
G1 X109.187 Y108.278 E.00402 ; infill
;WIDTH:0.41646
G1 X109.281 Y108.206 E.00371 ; infill
;WIDTH:0.38292
G1 X109.239 Y108.217 E.00124 ; infill
G1 X109.22 Y108.146 E.0021 ; infill
G1 X109.292 Y108.165 E.00213 ; infill
;WIDTH:0.449999
G1 X109.67 Y108.35 E.01439 ; infill
G1 X108.35 Y109.67 E.06382 ; infill
G1 X108.35 Y110.246 E.01969 ; infill
G1 X110.246 Y108.35 E.09167 ; infill
G1 X110.821 Y108.35 E.01966 ; infill
G1 X108.35 Y110.821 E.11947 ; infill
G1 X108.35 Y111.397 E.01969 ; infill
G1 X111.397 Y108.35 E.14732 ; infill
G1 X111.973 Y108.35 E.01969 ; infill
G1 X108.35 Y111.973 E.17517 ; infill
G1 X108.35 Y112.548 E.01966 ; infill
G1 X112.548 Y108.35 E.20297 ; infill
G1 X113.124 Y108.35 E.01969 ; infill
G1 X108.35 Y113.124 E.23081 ; infill
G1 X108.35 Y113.7 E.01969 ; infill
G1 X113.7 Y108.35 E.25866 ; infill
G1 X114.275 Y108.35 E.01966 ; infill
G1 X108.35 Y114.275 E.28646 ; infill
G1 X108.35 Y114.851 E.01969 ; infill
G1 X114.851 Y108.35 E.31431 ; infill
G1 X115.427 Y108.35 E.01969 ; infill
G1 X108.35 Y115.427 E.34216 ; infill
G1 X108.35 Y116.003 E.01969 ; infill
G1 X116.003 Y108.35 E.37001 ; infill
G1 X116.789 Y108.211 E.02729 ; infill
;WIDTH:0.38292
G1 X116.803 Y108.415 E.00584 ; infill
;WIDTH:0.41646
G1 X116.691 Y108.383 E.00365 ; infill
;WIDTH:0.449999
G1 X116.578 Y108.35 E.00402 ; infill
G1 X108.35 Y116.578 E.39781 ; infill
G1 X108.383 Y116.691 E.00402 ; infill
;WIDTH:0.41646
G1 X108.415 Y116.803 E.00365 ; infill
;WIDTH:0.38292
G1 X108.211 Y116.789 E.00584 ; infill
;WIDTH:0.449999
G1 X108.854 Y116.65 E.02249 ; infill
G1 X116.65 Y108.854 E.37692 ; infill
G1 X116.65 Y109.429 E.01966 ; infill
G1 X109.429 Y116.65 E.34912 ; infill
G1 X110.005 Y116.65 E.01969 ; infill
G1 X116.65 Y110.005 E.32127 ; infill
G1 X116.65 Y110.581 E.01969 ; infill
G1 X110.581 Y116.65 E.29342 ; infill
G1 X111.157 Y116.65 E.01969 ; infill
G1 X116.65 Y111.157 E.26558 ; infill
G1 X116.65 Y111.732 E.01966 ; infill
G1 X111.732 Y116.65 E.23778 ; infill
G1 X112.308 Y116.65 E.01969 ; infill
G1 X116.65 Y112.308 E.20993 ; infill
G1 X116.65 Y112.884 E.01969 ; infill
G1 X112.884 Y116.65 E.18208 ; infill
G1 X113.459 Y116.65 E.01966 ; infill
G1 X116.65 Y113.459 E.15428 ; infill
G1 X116.65 Y114.035 E.01969 ; infill
G1 X114.035 Y116.65 E.12643 ; infill
G1 X114.611 Y116.65 E.01969 ; infill
G1 X116.65 Y114.611 E.09858 ; infill
G1 X116.65 Y115.186 E.01966 ; infill
G1 X115.186 Y116.65 E.07078 ; infill
G1 X115.762 Y116.65 E.01969 ; infill
G1 X116.65 Y115.762 E.04293 ; infill
G1 X116.65 Y116.338 E.01969 ; infill
G1 X116.338 Y116.65 E.01508 ; infill
; stop printing object Shape-Box id:0 copy 0
;LAYER_CHANGE
;Z:0.65
;HEIGHT:0.2
;BEFORE_LAYER_CHANGE
G92 E0
;0.65


G1 E-.35 F2700 ; retract
;WIPE_START
G1 F7200
G1 X116.636 Y116.352 E-.15 ; wipe and retract
;WIPE_END
G1 Z.76 F9000 ; lift Z
;AFTER_LAYER_CHANGE
;0.65
; printing object Shape-Box id:0 copy 0
G1 X116.943 Y116.943 ; move to first perimeter point
G1 Z.66 ; restore layer Z
G1 E.5 F2700 ;  ; unretract
;TYPE:Perimeter
;WIDTH:0.399999
G1 F1500
G1 X108.057 Y116.943 E.26647 ; perimeter
G1 X108.057 Y108.057 E.26647 ; perimeter
G1 X116.943 Y108.057 E.26647 ; perimeter
G1 X116.943 Y116.883 E.26468 ; perimeter
G1 X117.3 Y117.3 F9000 ; move to first perimeter point
;TYPE:External perimeter
G1 F1500

G1 X116.9 Y117.3 E.012 ; perimeter
G1 X108.1 Y117.3 E.2639 ; perimeter
G1 X107.7 Y117.3 E.012 ; perimeter
G1 X107.7 Y116.9 E.012 ; perimeter
G1 X107.7 Y108.1 E.2639 ; perimeter
G1 X107.7 Y107.7 E.012 ; perimeter
G1 X108.1 Y107.7 E.012 ; perimeter
G1 X116.9 Y107.7 E.2639 ; perimeter
G1 X117.3 Y107.7 E.012 ; perimeter
G1 X117.3 Y108.1 E.012 ; perimeter
G1 X117.3 Y116.84 E.2621 ; perimeter
G1 X117.3 Y117.24 E.012 ; perimeter

G1 X116.914 Y117.196 F9000 ; move inwards before travel
G1 E-.35 F2700 ; retract
;WIPE_START
G1 F7200
G1 X116.879 Y117.243 E-.15 ; wipe and retract
;WIPE_END
G1 Z.96 F9000 ; lift Z
G1 X108.383 Y116.54 ; move to first infill point
G1 Z.66 ; restore layer Z
G1 E.5 F2700 ;  ; unretract
;TYPE:Solid infill
;WIDTH:0.548766
G1 F1500
G1 X108.338 Y116.584 E.00267 ; infill
G1 X108.355 Y116.645 E.00269 ; infill
G1 X108.416 Y116.662 E.00269 ; infill
G1 X108.46 Y116.617 E.00267 ; infill
G1 X108.444 Y116.556 E.00268 ; infill
G1 X109.239 Y116.783 F9000 ; move to first infill point
;WIDTH:0.38292
G1 F1500
G1 X109.22 Y116.854 E.0021 ; infill
G1 X109.292 Y116.835 E.00213 ; infill
G1 X109.281 Y116.794 E.00121 ; infill
;WIDTH:0.41646
G1 X109.187 Y116.722 E.00371 ; infill
;WIDTH:0.449999
G1 X109.094 Y116.65 E.00402 ; infill
G1 X108.35 Y115.906 E.03597 ; infill
G1 X108.278 Y115.813 E.00402 ; infill
;WIDTH:0.41646
G1 X108.206 Y115.719 E.00371 ; infill
;WIDTH:0.38292
G1 X108.217 Y115.761 E.00124 ; infill
G1 X108.146 Y115.78 E.0021 ; infill
G1 X108.165 Y115.708 E.00213 ; infill
;WIDTH:0.449999
G1 X108.35 Y115.33 E.01439 ; infill
G1 X109.67 Y116.65 E.06382 ; infill
G1 X110.246 Y116.65 E.01969 ; infill
G1 X108.35 Y114.754 E.09167 ; infill
G1 X108.35 Y114.179 E.01966 ; infill
G1 X110.821 Y116.65 E.11947 ; infill
G1 X111.397 Y116.65 E.01969 ; infill
G1 X108.35 Y113.603 E.14732 ; infill
G1 X108.35 Y113.027 E.01969 ; infill
G1 X111.973 Y116.65 E.17517 ; infill
G1 X112.548 Y116.65 E.01966 ; infill
G1 X108.35 Y112.452 E.20297 ; infill
G1 X108.35 Y111.876 E.01969 ; infill
G1 X113.124 Y116.65 E.23081 ; infill
G1 X113.7 Y116.65 E.01969 ; infill
G1 X108.35 Y111.3 E.25866 ; infill
G1 X108.35 Y110.725 E.01966 ; infill
G1 X114.275 Y116.65 E.28646 ; infill
G1 X114.851 Y116.65 E.01969 ; infill
G1 X108.35 Y110.149 E.31431 ; infill
G1 X108.35 Y109.573 E.01969 ; infill
G1 X115.427 Y116.65 E.34216 ; infill
G1 X116.003 Y116.65 E.01969 ; infill
G1 X108.35 Y108.997 E.37001 ; infill
G1 X108.211 Y108.211 E.02729 ; infill
;WIDTH:0.38292
G1 X108.415 Y108.197 E.00584 ; infill
;WIDTH:0.41646
G1 X108.383 Y108.309 E.00365 ; infill
;WIDTH:0.449999
G1 X108.35 Y108.422 E.00402 ; infill
G1 X116.578 Y116.65 E.39781 ; infill
G1 X116.691 Y116.617 E.00402 ; infill
;WIDTH:0.41646
G1 X116.803 Y116.585 E.00365 ; infill
;WIDTH:0.38292
G1 X116.789 Y116.789 E.00584 ; infill
;WIDTH:0.449999
G1 X116.65 Y116.146 E.02249 ; infill
G1 X108.854 Y108.35 E.37692 ; infill
G1 X109.429 Y108.35 E.01966 ; infill
G1 X116.65 Y115.571 E.34912 ; infill
G1 X116.65 Y114.995 E.01969 ; infill
G1 X110.005 Y108.35 E.32127 ; infill
G1 X110.581 Y108.35 E.01969 ; infill
G1 X116.65 Y114.419 E.29342 ; infill
G1 X116.65 Y113.843 E.01969 ; infill
G1 X111.157 Y108.35 E.26558 ; infill
G1 X111.732 Y108.35 E.01966 ; infill
G1 X116.65 Y113.268 E.23778 ; infill
G1 X116.65 Y112.692 E.01969 ; infill
G1 X112.308 Y108.35 E.20993 ; infill
G1 X112.884 Y108.35 E.01969 ; infill
G1 X116.65 Y112.116 E.18208 ; infill
G1 X116.65 Y111.541 E.01966 ; infill
G1 X113.459 Y108.35 E.15428 ; infill
G1 X114.035 Y108.35 E.01969 ; infill
G1 X116.65 Y110.965 E.12643 ; infill
G1 X116.65 Y110.389 E.01969 ; infill
G1 X114.611 Y108.35 E.09858 ; infill
G1 X115.186 Y108.35 E.01966 ; infill
G1 X116.65 Y109.814 E.07078 ; infill
G1 X116.65 Y109.238 E.01969 ; infill
G1 X115.762 Y108.35 E.04293 ; infill
G1 X116.338 Y108.35 E.01969 ; infill
G1 X116.65 Y108.662 E.01508 ; infill
; stop printing object Shape-Box id:0 copy 0
M106 S102 ; enable fan
;LAYER_CHANGE
;Z:0.85
;HEIGHT:0.2
;BEFORE_LAYER_CHANGE
G92 E0
;0.85


G1 E-.35 F2700 ; retract
;WIPE_START
G1 F7200
G1 X116.352 Y108.364 E-.15 ; wipe and retract
;WIPE_END
G1 Z.96 F9000 ; lift Z
;AFTER_LAYER_CHANGE
;0.85
; printing object Shape-Box id:0 copy 0
G1 X116.943 Y116.943 ; move to first perimeter point
G1 Z.86 ; restore layer Z
G1 E.5 F2700 ;  ; unretract
;TYPE:Perimeter
;WIDTH:0.399999
G1 F1500
G1 X108.057 Y116.943 E.26647 ; perimeter
G1 X108.057 Y108.057 E.26647 ; perimeter
